X:13133
T:Pinar Basi
O:Turkey
M:2/4
K:Am
cc3|c2c2|c<ccc|cccc|_d2c2|
B2A2|AA/2G/2ABc4|c/2_d/2c/2B/2A/2G/2A/2B/2|c>dc/2d/2e|
|:e>eee|e/2ef/2e/2d/2d/2c/2|d/2de/2d/2c/2c/2B/2|c/2cd/2c/2B/2B/2A/2|
c>dc/2B/2B/2A/2|1A>dc/2d/2e:|2A4|
|:ccB2|GAAA|ccB2|GAAA|ccB2|GAd/2c/2d|ccB>A|GAAA:|
